X: 3
T:Mazurka
R:Mazurka
O:France
A:Massif Central
M:3/4
C:Trad.
Q:280
K:G
D2GFG2|D2BAB2|1 cBAGFG|AGFED2 :|2 cBAGFA|G4|Bc||
:d2dedc|B2G2AB|1 c2cdcB|A4Bc:|2 cBAGFA|G4:|
